!!!!SEGMENT: pl-kk--kk-i-7--083_gorczycki-grzegorz-gerwazy--regina-caeli.krn
!!!cenid: 16xx:922
!!!COM: Gorczycki, Grzegorz Gerwazy
!!!COM-rismID: pe30009207
!!!CDT: ~1666-1734/04/30
!!!CNT: Polish
!!!OTL: Regina caeli
!!!PDT:
!!!AGN: Sacred
!!!SMS-siglum: PL-Kk
!!!SMS-shelfmark: Kk.I.7
!!!SMS-shelfwork: 083 W
!!!SMS-variant:
!!!SMS-altvar:
!!!NIFC-rismSourceID: 300258160
!!!NIFC-islandoraID: pl-kk:1956
!!!URL-pdf-islandora: https://repozytorium.nifc.pl/islandora/object/pl-kk%3A1956/datastream/PDF/view
!!!URL-scan: https://polish.musicsources.pl/pl/lokalizacje/galeria/rekopisy/6140 @EN{Scan on Polish Music Herritage in Open Access Website} @PL{Skany w portalu Dziedzictwo Muzyki Polskiej w otwartym dostępie}
!!!ONB-nifc: UWAGA: C (skan 0071 , s.135), A (brak), T(0234, s.130), B(0321, s.129). Następny utwór: Sancte Deus sancte fortis
!!!AIN: 1 alto 1 bass 1 soprn 1 tenor
!!!key:
**kern	**text	**kern	**text	**kern	**kern	**text
*part4	*part4	*part3	*part3	*part2	*part1	*part1
*staff4	*staff4	*staff3	*staff3	*staff2	*staff1	*staff1
*Ibass	*	*Itenor	*	*Ialto	*Isoprn	*
*I"BASSVS.	*	*I"TENOR.	*	*I"ALTVS.	*I"CANTVS.	*
*I'B	*	*I'T	*	*I'A	*I'C	*
*clefF4	*	*clefC4	*	*clefC3	*clefC1	*
*k[]	*	*k[]	*	*k[]	*k[]	*
*d:	*	*d:	*	*d:	*d:	*
*M2/1	*	*M2/1	*	*M2/1	*M2/1	*
*met(c|)	*	*met(c|)	*	*met(c|)	*met(c|)	*
=1	=1	=1	=1	=1	=1	=1
!	!	!	!	!	!LO:TX:a:t=à Capella	!
!	!	!	!	!	!LO:TX:a:t=G.\nG.\nG.	!
*	*	*	*	*	*2\right	*
!LO:TX:a:t=G\nG\nG	!	!LO:TX:a:t=G.\nG.\nG.	!	!	!	!
!LO:TX:a:i:B:t=I.	!	!LO:TX:a:i:B:t=I.	!	!	!	!
00r	.	00r	.	0ryy	2a\	Re-
.	.	.	.	.	4a\	-gi-
!	!	!	!	!	!LO:TX:t=P:problem=kreska pseudotaktowa	!
.	.	.	.	.	4a\	-na
.	.	.	.	.	2b-X\	Cae-
.	.	.	.	.	4a\	-li
!	!	!	!	!	!LO:TX:t=P:problem=kreska pseudotaktowa	!
.	.	.	.	.	4a\	Lae-
=2-	=2-	=2-	=2-	=2-	=2-	=2-
!	!	!LO:TX:t=P:problem=kreska pseudotaktowa	!	!	!	!
.	.	.	.	0ryy	4g\	-ta-
.	.	.	.	.	4a\	.
!	!	!	!	!	!LO:TX:a:t=P:problem=♭ above	!
.	.	.	.	.	4b-X\	.
!	!	!	!	!	!LO:TX:t=P:problem=kreska pseudotaktowa	!
.	.	.	.	.	4cc\	.
!	!	!	!	!	!LO:TX:t=P:problem=kreska pseudotaktowa	!
.	.	.	.	.	1dd\	.
=3-	=3-	=3-	=3-	=3-	=3-	=3-
!	!	!LO:TX:t=P:problem=kreska pseudotaktowa	!	!	!	!
00r	.	0r	.	0ryy	2dd\	-re
!	!	!	!	!	!LO:TX:t=P:problem=kreska pseudotaktowa	!
.	.	.	.	.	2ee\	Lae-
.	.	.	.	.	2.ff\	-ta-
.	.	.	.	.	8ee\L	.
!	!	!	!	!	!LO:TX:t=P:problem=kreska pseudotaktowa	!
.	.	.	.	.	8dd\J	.
=4-	=4-	=4-	=4-	=4-	=4-	=4-
*	*	*2\right	*	*	*	*
.	.	2A\	Re-	0ryy	4cc#X\	.
.	.	.	.	.	4dd\	.
.	.	4A\	-gi-	.	4ee\	.
!	!	!LO:TX:t=P:problem=kreska pseudotaktowa	!	!	!LO:TX:t=P:problem=kreska pseudotaktowa	!
.	.	4A\	-na	.	4dd\	.
.	.	2B-X\	Cae-	.	2dd\	.
.	.	4A/	-li	.	4a\	.
!	!	!LO:TX:t=P:problem=kreska pseudotaktowa	!	!	!LO:TX:t=P:problem=kreska pseudotaktowa	!
.	.	4A/	lae-	.	4ccn\	.
=5-	=5-	=5-	=5-	=5-	=5-	=5-
!LO:TX:t=P:problem=kreska pseudotaktowa	!	!	!	!	!	!
1r	.	4G/	-ta-	0ryy	4dd\	.
.	.	4A/	.	.	4cc\	.
.	.	4B-X\	.	.	4dd\	.
!	!	!LO:TX:t=P:problem=kreska pseudotaktowa	!	!	!LO:TX:t=P:problem=kreska pseudotaktowa	!
.	.	4c\	.	.	4ee\	.
2D/	Re-	1d\	.	.	4ff\	.
.	.	.	.	.	4a\	.
!	!	!	!	!	!LO:TX:t=P:problem=kreska pseudotaktowa, na nucie, luk nad nuta	!
4D/	-gi-	.	.	.	1dd\	.
!LO:TX:t=P:problem=kreska pseudotaktowa	!	!	!	!	!	!
4D/	-na	.	.	.	.	.
=6-	=6-	=6-	=6-	=6-	=6-	=6-
*2\right	*	*	*	*	*	*
2F\	Ce-	2d,<\	re	0ryy	.	.
!	!	!LO:TX:t=P:problem=kreska pseudotaktowa	!	!	!LO:TX:t=P:problem=kreska pseudotaktowa	!
4E\	-li	2e\	lae-	.	2cc#X\	.
!LO:TX:t=P:problem=kreska pseudotaktowa	!	!	!	!	!	!
4E\	Lae-	.	.	.	.	.
!	!	!	!	!	!LO:TX:t=P:problem=kreska pseudotaktowa	!
4D\	-ta-	2.fn\	-ta-	.	1dd\,<	-re
4E\	.	.	.	.	.	.
4F\	.	.	.	.	.	.
!LO:TX:t=P:problem=kreska pseudotaktowa	!	!	!	!	!	!
4G\	.	8e\L	.	.	.	.
!	!	!LO:TX:t=P:problem=kreska pseudotaktowa	!	!	!	!
.	.	8d\J	.	.	.	.
=7-	=7-	=7-	=7-	=7-	=7-	=7-
1A\	.	4c\	.	0ryy	2a\	Re-
.	.	4d\	.	.	.	.
.	.	4e\	.	.	4a\	-gi-
!	!	!	!	!	!LO:TX:t=P:problem=kreska pseudotaktowa	!
.	.	4c\	.	.	4a\	-na
2G\	-re	2d\	.	.	2b-X\	Cae-
!LO:TX:t=P:problem=kreska pseudotaktowa	!	!	!	!	!	!
2A\	Lae-	4A\	-re	.	4a\	-li
*	*	*	*	*	*custos:g	*
!	!	!	!	!	!LO:TX:t=P:problem=kreska pseudotaktowa	!
!	!	!LO:TX:t=P:problem=kreska pseudotaktowa	!	!	!	!
.	.	4c\	lae-	.	4a\	lae-
=8-	=8-	=8-	=8-	=8-	=8-	=8-
!	!	!	!	!	!LO:LB:g=original	!
2.B-X\	-ta-	4d\	-ta-	0ryy	4g\	-ta-
.	.	4c\	.	.	4a\	.
.	.	4d\	.	.	4b-X\	.
!	!	!LO:TX:t=P:problem=kreska pseudotaktowa	!	!	!LO:TX:t=P:problem=kreska pseudotaktowa	!
8A\L	.	4e\	.	.	4ccny\	.
8G\J	.	.	.	.	.	.
2F\	.	4f\	.	.	2dd\	.
.	.	4A/	.	.	.	.
4D\	.	1d\	.	.	4a,<\	-re
!	!	!	!	!	!LO:TX:t=P:problem=kreska pseudotaktowa	!
4F\	.	.	.	.	4a\	lae-
=9-	=9-	=9-	=9-	=9-	=9-	=9-
2G\	.	.	.	0ryy	(2b-X\	-ta-
!LO:TX:t=P:problem=kreska pseudotaktowa	!	!LO:TX:t=P:problem=kreska pseudotaktowa	!	!	!LO:TX:t=P:problem=kreska pseudotaktowa	!
2A\	.	2c#X\	.	.	2a\)	.
!	!	!	!	!	!LO:TX:t=P:problem=kreska pseudotaktowa	!
2D/	-re	2d\	-re	.	1a\	-re
!LO:TX:t=P:problem=kreska pseudotaktowa	!	!LO:TX:t=P:problem=kreska pseudotaktowa	!	!	!	!
2r	.	2r	.	.	.	.
=10-	=10-	=10-	=10-	=10-	=10-	=10-
!	!	!LO:LB:g=original	!	!	!LO:TX:t=P:problem=kreska pseudotaktowa	!
00rG	.	00r	.	0ryy	1rdd	.
.	.	.	.	.	2.dd\	al-
!	!	!	!	!	!LO:TX:t=P:problem=kreska pseudotaktowa	!
.	.	.	.	.	4b-X\	.
=11-	=11-	=11-	=11-	=11-	=11-	=11-
.	.	.	.	0ryy	4cc\	.
.	.	.	.	.	4dd\	.
!	!	!	!	!	!LO:TX:t=P:problem=kreska pseudotaktowa	!
.	.	.	.	.	2g/	.
.	.	.	.	.	4a\	.
.	.	.	.	.	4bny\	.
!	!	!	!	!	!LO:TX:t=P:problem=kreska pseudotaktowa	!
.	.	.	.	.	[<2cc\	.
=12-	=12-	=12-	=12-	=12-	=12-	=12-
!LO:TX:t=P:problem=kreska pseudotaktowa	!	!	!	!	!LO:N:xstem:cue	!
0r	.	0r	.	0ryy	4cc\]	.
.	.	.	.	.	4a\	.
.	.	.	.	.	2.dd\	le-
.	.	.	.	.	4cc\	.
!	!	!	!	!	!LO:TX:t=P:problem=kreska pseudotaktowa	!
.	.	.	.	.	2bn\	-lu-
=13-	=13-	=13-	=13-	=13-	=13-	=13-
!	!	!LO:TX:t=P:problem=kreska pseudotaktowa	!	!	!	!
2.A\	al-	1r	.	0ryy	2.cc#X\	-ia
!LO:TX:t=P:problem=kreska pseudotaktowa	!	!	!	!	!LO:TX:t=P:problem=kreska pseudotaktowa	!
4F\	.	.	.	.	4a\	.
4G\	.	2r	.	.	4b\	.
4A\	.	.	.	.	4cc#\	.
4D\	.	2.d\	Al-	.	1dd\	.
!LO:TX:t=P:problem=kreska pseudotaktowa	!	!	!	!	!	!
4E\	.	.	.	.	.	.
=14-	=14-	=14-	=14-	=14-	=14-	=14-
4F\	.	.	.	0ryy	.	.
4G\	.	4B-X\	.	.	.	.
!	!	!	!	!	!LO:TX:t=P:problem=kreska pseudotaktowa	!
4A\	.	4cny\	.	.	2rb	.
!LO:TX:t=P:problem=kreska pseudotaktowa	!	!LO:TX:t=P:problem=kreska pseudotaktowa	!	!	!	!
4F\	.	4d\	.	.	.	.
!	!	!	!	!	!LO:TX:t=P:problem=kreska pseudotaktowa	!
4G\	.	2G/	.	.	1rdd	.
4E\	.	.	.	.	.	.
*custos:C	*	*	*	*	*	*
!LO:TX:t=P:problem=kreska pseudotaktowa	!	!	!	!	!	!
2F\	.	4A/	le-	.	.	.
.	.	4B-y/	.	.	.	.
=15-	=15-	=15-	=15-	=15-	=15-	=15-
!LO:LB:g=original	!	!	!	!	!	!
4C/	.	2c\	-lu-	0ryy	2.ccny\	al-
4D/	.	.	.	.	.	.
4E\	.	2c\	-ia	.	.	.
!LO:TX:t=P:problem=kreska pseudotaktowa	!	!	!	!	!LO:TX:t=P:problem=kreska pseudotaktowa	!
4F\	.	.	.	.	4a\	.
!	!	!LO:TX:t=P:problem=kreska pseudotaktowa	!	!	!	!
1.G\	.	1Bn\	al-	.	4b\	.
.	.	.	.	.	4cc\	.
!	!	!	!	!	!LO:TX:t=P:problem=kreska pseudotaktowa	!
.	.	.	.	.	2dd\	.
=16-	=16-	=16-	=16-	=16-	=16-	=16-
.	.	2c\	-le-	0ryy	2cc\	-le-
2F\	le-	2A\	-lu-	.	1dd\	.
2G\	-lu-	2B-X\	.	.	.	.
!LO:TX:t=P:problem=kreska pseudotaktowa	!	!	!	!	!	!
2A\	-ia	2A\	-ia	.	2cc#X\	-lu-
=17-	=17-	=17-	=17-	=17-	=17-	=17-
!LO:TX:t=P:problem=kreska pseudotaktowa	!	!	!	!	!LO:TX:t=P:problem=kreska pseudotaktowa	!
1D\	.	2A,</	.	0ryy	1dd\	-ia
.	.	1d\	Qui-	.	.	.
!	!	!	!	!	!LO:LB:g=original	!
00rG	.	.	.	.	0r	.
!	!	!LO:TX:t=P:problem=kreska pseudotaktowa	!	!	!	!
.	.	2c#X\	-a	.	.	.
=18-	=18-	=18-	=18-	=18-	=18-	=18-
.	.	2d\	Quem	0ryy	.	.
.	.	4A/	me-	.	.	.
!	!	!LO:TX:t=P:problem=kreska pseudotaktowa	!	!	!	!
.	.	4A/	-ru-	.	.	.
!	!	!	!	!	!LO:TX:t=P:problem=kreska pseudotaktowa	!
.	.	2d\	-i-	.	1r	.
.	.	4B-X\	-ſti	.	.	.
!	!	!LO:TX:t=P:problem=kreska pseudotaktowa	!	!	!	!
.	.	4B-\	por-	.	.	.
=19-	=19-	=19-	=19-	=19-	=19-	=19-
.	.	2A/	-ta-	0ryy	2r	.
.	.	2F/	.	.	1dd\	Qui-
!LO:TX:t=P:problem=kreska pseudotaktowa	!	!	!	!	!	!
1r	.	2G/	.	.	.	.
!	!	!	!	!	!LO:TX:t=P:problem=kreska pseudotaktowa	!
.	.	2A\	.	.	2cc#X\	-a
=20-	=20-	=20-	=20-	=20-	=20-	=20-
2r	.	2D/	-re	0ryy	2dd\	quem
!	!	!LO:TX:t=P:problem=kreska pseudotaktowa	!	!	!	!
1A\	Qui-	1rd	.	.	4a\	me-
!	!	!	!	!	!LO:TX:t=P:problem=kreska pseudotaktowa	!
.	.	.	.	.	4a\	-ru-
.	.	.	.	.	2dd\	-i-
!	!	!LO:TX:t=P:problem=kreska pseudotaktowa	!	!	!	!
2G\	-a	2r	.	.	4b\	-ſti
!	!	!	!	!	!LO:TX:t=P:problem=kreska pseudotaktowa	!
.	.	.	.	.	4b\	por-
=21-	=21-	=21-	=21-	=21-	=21-	=21-
2A\	quem	2r	.	0ryy	2ccny\	-ta-
!	!	!	!	!	!LO:TX:t=P:problem=kreska pseudotaktowa	!
4D/	me-	1d\	Qui-	.	2a\	-re
!LO:TX:t=P:problem=kreska pseudotaktowa	!	!	!	!	!	!
4D/	-ru-	.	.	.	.	.
2G\	-i-	.	.	.	1rdd	.
*	*	*custos:d	*	*	*	*
!	!	!LO:TX:t=P:problem=kreska pseudotaktowa	!	!	!	!
4E/	-ſti	2c#X\	-a	.	.	.
4E/	por-	.	.	.	.	.
=22-	=22-	=22-	=22-	=22-	=22-	=22-
!	!	!LO:LB:g=original	!	!	!	!
2D/	-ta-	2d\	Quem	0ryy	2r	.
!	!	!	!	!	!LO:TX:t=P:problem=kreska pseudotaktowa	!
2C/	.	4A/	me-	.	2cc\	Quem
!	!	!LO:TX:t=P:problem=kreska pseudotaktowa	!	!	!	!
.	.	4A/	-ru-	.	.	.
2D\	.	2d\	-i-	.	4a\	me-
.	.	.	.	.	4a\	-ru-
!LO:TX:t=P:problem=kreska pseudotaktowa	!	!	!	!	!	!
2E\	.	4Bn,<\	-ſti	.	2ee\	-i-
!	!	!LO:TX:t=P:problem=kreska pseudotaktowa	!	!	!	!
.	.	4B\	por-	.	.	.
=23-	=23-	=23-	=23-	=23-	=23-	=23-
2AA/	-re.	2A/	-ta-	0ryy	4cc#X\	-ſti
.	.	.	.	.	4cc#\	por-
!LO:TX:t=P:problem=kreska pseudotaktowa	!	!	!	!	!	!
2r	.	2F/	.	.	1dd\	-ta-
0rC	.	2G/	.	.	.	.
!	!	!LO:TX:t=P:problem=kreska pseudotaktowa	!	!	!LO:TX:t=P:problem=kreska pseudotaktowa	!
.	.	2A/	.	.	2cc#X\	.
=24-	=24-	=24-	=24-	=24-	=24-	=24-
!	!	!LO:TX:t=P:problem=kreska pseudotaktowa	!	!	!	!
.	.	1D/	-re	0ryy	2dd\	-re
!	!	!	!	!	!LO:TX:t=P:problem=kreska pseudotaktowa	!
.	.	.	.	.	2a\	al-
!	!	!LO:TX:t=P:problem=kreska pseudotaktowa	!	!	!	!
2r	.	1re	.	.	(4dd\	-le-
.	.	.	.	.	4ee\)	.
!LO:TX:t=P:problem=kreska pseudotaktowa	!	!	!	!	!	!
2D\	al-	.	.	.	(4dd\	-lu-
!	!	!	!	!	!LO:TX:t=P:problem=kreska pseudotaktowa	!
.	.	.	.	.	4ccny\)	.
=25-	=25-	=25-	=25-	=25-	=25-	=25-
(4G\	-le-	2r	.	0ryy	4bn\	.
4A\)	.	.	.	.	4cc\	.
!	!	!LO:TX:t=P:problem=kreska pseudotaktowa	!	!	!	!
(4G\	-lu-	2G/	al-	.	4dd\	.
!LO:TX:t=P:problem=kreska pseudotaktowa	!	!	!	!	!LO:TX:t=P:problem=kreska pseudotaktowa	!
4F\)	.	.	.	.	4b\	.
!	!	!	!	!	!LO:TX:t=P:problem=kreska pseudotaktowa	!
4E\	-ia	(4cny\	-le-	.	1cc\	-ia
4F\	.	4d\)	.	.	.	.
4G\	.	(4c\	-lu-	.	.	.
!LO:TX:t=P:problem=kreska pseudotaktowa	!	!LO:TX:t=P:problem=kreska pseudotaktowa	!	!	!	!
4E\	.	4B\)	.	.	.	.
=26-	=26-	=26-	=26-	=26-	=26-	=26-
!	!	!	!	!	!LO:TX:t=P:problem=kreska pseudotaktowa	!
4F\	.	4A\	-ia	0ryy	0r	.
4G\	.	4B\	.	.	.	.
4A\	.	4c\	.	.	.	.
!	!	!LO:TX:t=P:problem=kreska pseudotaktowa	!	!	!	!
4F\	.	4A\	al-	.	.	.
2G\	al-	4B\	.	.	.	.
.	.	4G/	.	.	.	.
!LO:TX:t=P:problem=kreska pseudotaktowa	!	!	!	!	!	!
2A\	-le-	1c\	-le-	.	.	.
=27-	=27-	=27-	=27-	=27-	=27-	=27-
4G\	-lu-	.	.	0ryy	2r	.
4F\	.	.	.	.	.	.
!	!	!LO:TX:t=P:problem=kreska pseudotaktowa	!	!	!LO:TX:t=P:problem=kreska pseudotaktowa	!
4E\	.	2B\	-lu-	.	2g/	al-
!LO:TX:t=P:problem=kreska pseudotaktowa	!	!	!	!	!	!
4D\	.	.	.	.	.	.
2C,</	-ia	2c\	-ia	.	(4cc\	-le-
.	.	.	.	.	4dd\)	.
*custos:F	*	*	*	*	*	*
!LO:TX:t=P:problem=kreska pseudotaktowa	!	!	!	!	!	!
!	!	!LO:TX:t=P:problem=kreska pseudotaktowa	!	!	!	!
2C/	al-	2r	.	.	(4cc\	-lu-
!	!	!	!	!	!LO:TX:t=P:problem=kreska pseudotaktowa	!
.	.	.	.	.	4b\)	.
=28-	=28-	=28-	=28-	=28-	=28-	=28-
!LO:LB:g=original	!	!	!	!	!	!
(4F\	-le-	2r	.	0ryy	2a\	-ia
4G\)	.	.	.	.	.	.
!	!	!LO:TX:t=P:problem=kreska pseudotaktowa	!	!	!LO:TX:t=P:problem=kreska pseudotaktowa	!
(4F\	-lu-	2A/	al-	.	2r	.
4E\)	.	.	.	.	.	.
!	!	!	!	!	!LO:TX:t=P:problem=kreska pseudotaktowa	!
2D,</	-ia	(4d\	-le-	.	0r	.
.	.	4e\)	.	.	.	.
!LO:TX:t=P:problem=kreska pseudotaktowa	!	!	!	!	!	!
*	*ij	*	*	*	*	*
2D/	al-	(4d\	-lu-	.	.	.
!	!	!LO:TX:t=P:problem=kreska pseudotaktowa	!	!	!	!
.	.	4c\)	.	.	.	.
=29-	=29-	=29-	=29-	=29-	=29-	=29-
4G\	-le-	2B,<\	-ia	0ryy	.	.
4A\	.	.	.	.	.	.
4G\	-lu-	2B\	al-	.	.	.
4F\	.	.	.	.	.	.
!	!	!	!	!	!LO:LB:g=original	!
2E\	-ia	2c#X\	-le-	.	2r	.
*	*Xij	*	*	*	*	*
!LO:TX:t=P:problem=kreska pseudotaktowa	!	!	!	!	!LO:TX:t=P:problem=kreska pseudotaktowa	!
2D/	al-	1d\	.	.	2a\	al-
=30-	=30-	=30-	=30-	=30-	=30-	=30-
2A\	-le-	.	.	0ryy	2a\	-le-
!	!	!	!	!	!LO:TX:t=P:problem=kreska pseudotaktowa	!
2AA/	-lu-	2c#X\	-lu-	.	2a\	-lu-
!LO:N:vis=0	!	!LO:N:vis=0	!	!	!	!
1D\;	-ia.	1d\;	-ia.	.	1a\	-ia.
=31||	=31||	=31||	=31||	=31||	=31||	=31||
*M3/2	*	*M3/2	*	*M3/2	*M3/2	*
!	!	!	!	!	!LO:TX:t=P:problem=kreska pseudotaktowa	!
!	!	!LO:LB:g=original	!	!	!LO:N:vis=1	!
!LO:N:vis=00	!	!LO:N:vis=00	!	!	!	!
00.r	.	00.r	.	1.ryy	1.r	.
=32-	=32-	=32-	=32-	=32-	=32-	=32-
.	.	.	.	1.ryy	2r	.
.	.	.	.	.	(4a\	Re-
.	.	.	.	.	4g\)	.
.	.	.	.	.	(4a\	-sur-
!	!	!	!	!	!LO:TX:t=P:problem=kreska pseudotaktowa	!
.	.	.	.	.	4b\)	.
=33-	=33-	=33-	=33-	=33-	=33-	=33-
.	.	.	.	1.ryy	1cc\	-re-
!	!	!	!	!	!LO:TX:t=P:problem=kreska pseudotaktowa	!
.	.	.	.	.	2a\	-xit
=34-	=34-	=34-	=34-	=34-	=34-	=34-
.	.	.	.	1.ryy	1b\	si-
!	!	!	!	!	!LO:TX:t=P:problem=kreska pseudotaktowa	!
.	.	.	.	.	2cc\	-cut
=35-	=35-	=35-	=35-	=35-	=35-	=35-
!LO:TX:t=P:problem=kreska pseudotaktowa	!	!LO:TX:t=P:problem=kreska pseudotaktowa	!	!	!	!
!LO:N:vis=1	!	!LO:N:vis=0	!	!	!	!
1.r	.	0.r	.	1.ryy	1dd\	di-
!	!	!	!	!	!LO:TX:t=P:problem=kreska pseudotaktowa	!
.	.	.	.	.	2cc\	.
=36-	=36-	=36-	=36-	=36-	=36-	=36-
2r	.	.	.	1.ryy	1.dd\	-xit
(4D/	Re-	.	.	.	.	.
4C/)	.	.	.	.	.	.
(4D/	-sur-	.	.	.	.	.
!LO:TX:t=P:problem=kreska pseudotaktowa	!	!	!	!	!	!
4E/)	.	.	.	.	.	.
=37-	=37-	=37-	=37-	=37-	=37-	=37-
!	!	!	!	!	!LO:TX:t=P:problem=kreska pseudotaktowa	!
1F\	-re-	2r	.	1.ryy	1.r	.
.	.	(4A\	Re-	.	.	.
.	.	4G\)	.	.	.	.
2D\	-xit	(4A\	-sur-	.	.	.
!	!	!LO:TX:t=P:problem=kreska pseudotaktowa	!	!	!	!
.	.	4B\)	.	.	.	.
=38-	=38-	=38-	=38-	=38-	=38-	=38-
1E\	di-	1cny\	-re-	1.ryy	2r	.
.	.	.	.	.	2cc\	re-
!LO:TX:t=P:problem=kreska pseudotaktowa	!	!	!	!	!LO:TX:t=P:problem=kreska pseudotaktowa	!
2F\	.	2A/	-xit	.	2cc\	-ſur-
=39-	=39-	=39-	=39-	=39-	=39-	=39-
2.G\	.	1B\	si-	1.ryy	1b\	-re-
4F\	.	.	.	.	.	.
!	!	!LO:TX:t=P:problem=kreska pseudotaktowa	!	!	!LO:TX:t=P:problem=kreska pseudotaktowa	!
2E\	.	2c\	-cut	.	2g/	-xit
=40-	=40-	=40-	=40-	=40-	=40-	=40-
!	!	!	!	!	!LO:TX:t=P:problem=kreska pseudotaktowa	!
2F\	.	1d\	di-	1.ryy	1.r	.
!LO:TX:t=P:problem=kreska pseudotaktowa	!	!	!	!	!	!
1E\	.	.	.	.	.	.
!	!	!LO:TX:t=P:problem=kreska pseudotaktowa	!	!	!	!
.	.	2c#X\	.	.	.	.
=41-	=41-	=41-	=41-	=41-	=41-	=41-
2D/	-xit	2d\	-xit	1.ryy	2r	.
2r	.	(4A/	re-	.	(4cc\	Re-
.	.	4G/)	.	.	4b\)	.
!LO:TX:t=P:problem=kreska pseudotaktowa	!	!	!	!	!	!
2r	.	(4A/	-ſur-	.	(4cc\	-sur-
!	!	!LO:TX:t=P:problem=kreska pseudotaktowa	!	!	!LO:TX:t=P:problem=kreska pseudotaktowa	!
.	.	4B/)	.	.	4dd\)	.
=42-	=42-	=42-	=42-	=42-	=42-	=42-
!LO:TX:t=P:problem=kreska pseudotaktowa	!	!	!	!	!	!
!LO:N:vis=0	!	!	!	!	!	!
0.r	.	1cny\	-re-	1.ryy	1ee\	-re-
!	!	!LO:TX:t=P:problem=kreska pseudotaktowa	!	!	!LO:TX:t=P:problem=kreska pseudotaktowa	!
.	.	2A/	-xit	.	2ee\	-xit
=43-	=43-	=43-	=43-	=43-	=43-	=43-
.	.	1B\	si-	1.ryy	1dd\	si-
.	.	2c\	-cut	.	(4cc\	-cut
!	!	!	!	!	!LO:TX:t=P:problem=kreska pseudotaktowa	!
.	.	.	.	.	4b\)	.
=44-	=44-	=44-	=44-	=44-	=44-	=44-
2r	.	1.d\	di-	1.ryy	1a\	dix-
(4D/	Re-	.	.	.	.	.
4C/)	.	.	.	.	.	.
*	*	*	*	*	*custos:a	*
!	!	!	!	!	!LO:TX:t=P:problem=kreska pseudotaktowa	!
(4D/	-sur-	.	.	.	2a\	-it
!LO:TX:t=P:problem=kreska pseudotaktowa	!	!	!	!	!	!
4E/)	.	.	.	.	.	.
=45-	=45-	=45-	=45-	=45-	=45-	=45-
!	!	!	!	!	!LO:LB:g=original	!
1F\	-re-	1c\	-xit	1.ryy	2r	.
.	.	.	.	.	(4a\	Re-
.	.	.	.	.	4g\)	.
!	!	!LO:TX:t=P:problem=kreska pseudotaktowa	!	!	!	!
2D\	-xit	2r	.	.	(4a\	-sur-
!	!	!	!	!	!LO:TX:t=P:problem=kreska pseudotaktowa	!
.	.	.	.	.	4b\)	.
=46-	=46-	=46-	=46-	=46-	=46-	=46-
1E\	si-	2r	.	1.ryy	1cc\	-re-
.	.	2c\	re-	.	.	.
*custos:G	*	*	*	*	*	*
!LO:TX:t=P:problem=kreska pseudotaktowa	!	!	!	!	!	!
!	!	!	!	!	!LO:TX:t=P:problem=kreska pseudotaktowa	!
!LO:LB:g=original	!	!	!	!	!	!
2F\	-cut	2c\	-ſur-	.	2a\	-xit
=47-	=47-	=47-	=47-	=47-	=47-	=47-
2.G\	di-	1B\	-re-	1.ryy	1b\	si-
4F\	.	.	.	.	.	.
!	!	!LO:TX:t=P:problem=kreska pseudotaktowa	!	!	!LO:TX:t=P:problem=kreska pseudotaktowa	!
2E\	.	2G/	-xit	.	2cc\	-cut
=48-	=48-	=48-	=48-	=48-	=48-	=48-
!	!	!LO:TX:t=P:problem=kreska pseudotaktowa	!	!	!	!
2F\	.	1.r	.	1.ryy	(2a\	di-
!LO:TX:t=P:problem=kreska pseudotaktowa	!	!	!	!	!LO:TX:t=P:problem=kreska pseudotaktowa	!
1C/	.	.	.	.	1g\)	.
=49-	=49-	=49-	=49-	=49-	=49-	=49-
1.FF/	-xit	2F/	al-	1.ryy	4a,<\	-xit
.	.	.	.	.	4a\	al-
.	.	2A\	-le-	.	2cc\	-le-
!	!	!LO:TX:t=P:problem=kreska pseudotaktowa	!	!	!LO:TX:t=P:problem=kreska pseudotaktowa	!
.	.	2B-X\	-lu-	.	2dd\	-lu-
=50-	=50-	=50-	=50-	=50-	=50-	=50-
2C/	al-	2.c\	-ia	1.ryy	2.ee,<\	-ia
2E\	-le-	.	.	.	.	.
*	*	*	*	*	*	*ij
.	.	4c\	.	.	4ee\	al-
!LO:TX:t=P:problem=kreska pseudotaktowa	!	!	!	!	!	!
2F\	-lu-	4B-X\	.	.	4dd\	-le-
!	!	!LO:TX:t=P:problem=kreska pseudotaktowa	!	!	!LO:TX:t=P:problem=kreska pseudotaktowa	!
.	.	4A\	.	.	4cc\	-lu-
=51-	=51-	=51-	=51-	=51-	=51-	=51-
!	!	!	!	!	!LO:TX:t=P:problem=kreska pseudotaktowa	!
2.G\	-ia	1G/	.	1.ryy	1.b\	-ia
*	*	*	*	*	*	*Xij
4G\	.	.	.	.	.	.
!	!	!LO:TX:t=P:problem=kreska pseudotaktowa	!	!	!	!
4F\	.	2rF	.	.	.	.
!LO:TX:t=P:problem=kreska pseudotaktowa	!	!	!	!	!	!
4E\	.	.	.	.	.	.
=52-	=52-	=52-	=52-	=52-	=52-	=52-
!	!	!LO:LB:g=original	!	!	!	!
1.D\	.	2D/	al-	1.ryy	2dd\	al-
.	.	2F/	-le-	.	2dd\	-le-
!	!	!LO:TX:t=P:problem=kreska pseudotaktowa	!	!	!LO:TX:t=P:problem=kreska pseudotaktowa	!
.	.	2G/	-lu-	.	2dd\	-lu-
=53-	=53-	=53-	=53-	=53-	=53-	=53-
!LO:N:vis=0	!	!	!	!	!	!
0.r	.	2.A/	-ia	1.ryy	2.cc\	-ia
*	*	*	*ij	*	*	*
.	.	4A/	al-	.	4dd\	.
.	.	4G/	-le-	.	4cc\	al-
!	!	!LO:TX:t=P:problem=kreska pseudotaktowa	!	!	!LO:TX:t=P:problem=kreska pseudotaktowa	!
.	.	4F/	-lu-	.	4dd\	.
=54-	=54-	=54-	=54-	=54-	=54-	=54-
.	.	1E/,<	-ia	1.ryy	1ee\	-le-
*	*	*	*Xij	*	*	*
!	!	!	!	!	!LO:TX:t=P:problem=kreska pseudotaktowa	!
.	.	2D/	al-	.	2dd\	.
=55-	=55-	=55-	=55-	=55-	=55-	=55-
!LO:N:vis=1	!	!	!	!	!	!
1.r	.	1A\	-le-	1.ryy	(1dd\	-lu-
.	.	2A\	-lu-	.	2cc#X\)	.
=56-	=56-	=56-	=56-	=56-	=56-	=56-
*M2/1	*	*M2/1	*	*M2/1	*M2/1	*
*met(c|)	*	*met(c|)	*	*met(c|)	*met(c|)	*
2D\	O-	2D/	-ia	0ryy	2dd\	-ia.
!	!	!LO:TX:t=P:problem=kreska pseudotaktowa	!	!	!LO:TX:t=P:problem=kreska pseudotaktowa	!
2A\	-ra	2rF	.	.	2r	.
2E\	pro	0r	.	.	00r	.
1G\	no-	.	.	.	.	.
=57-	=57-	=57-	=57-	=57-	=57-	=57-
.	.	.	.	0ryy	.	.
2F\	-bis	.	.	.	.	.
!LO:TX:t=P:problem=kreska pseudotaktowa	!	!LO:TX:t=P:problem=kreska pseudotaktowa	!	!	!	!
1E\	De-	1rc	.	.	.	.
=58-	=58-	=58-	=58-	=58-	=58-	=58-
2D,<\	-um	2A/	O-	0ryy	.	.
!	!	!LO:TX:t=P:problem=kreska pseudotaktowa	!	!	!	!
1E\	pro	2e\	-ra	.	.	.
.	.	2Bny\	pro	.	00r	.
2F#X\	.	1d\	no-	.	.	.
=59-	=59-	=59-	=59-	=59-	=59-	=59-
2G#X\	no-	.	.	0ryy	.	.
!LO:TX:t=P:problem=kreska pseudotaktowa	!	!	!	!	!	!
2A\	-bis	2c\	-bis	.	.	.
!	!	!LO:TX:t=P:problem=kreska pseudotaktowa	!	!	!	!
(2A\	De-	1B\	De-	.	.	.
2G#X\)	.	.	.	.	.	.
=60-	=60-	=60-	=60-	=60-	=60-	=60-
2A,<\	-um	2A,<\	-um	0ryy	.	.
4Fny\	o-	1A\	O-	.	.	.
!LO:TX:t=P:problem=kreska pseudotaktowa	!	!	!	!	!	!
4E\	.	.	.	.	.	.
*	*	*	*	*	*custos:a	*
!	!	!	!	!	!LO:TX:t=P:problem=kreska pseudotaktowa	!
4D\	.	.	.	.	00rcc	.
4E\	.	.	.	.	.	.
!	!	!LO:TX:t=P:problem=kreska pseudotaktowa	!	!	!	!
4F\	.	2A/	-ra	.	.	.
4Gny\	.	.	.	.	.	.
=61-	=61-	=61-	=61-	=61-	=61-	=61-
2A,<\	-ra	(2A\	pro	0ryy	.	.
!LO:TX:t=P:problem=kreska pseudotaktowa	!	!	!	!	!	!
2G\	pro	2B\)	.	.	.	.
2A\	no-	2c#X\	no-	.	.	.
!	!	!LO:TX:t=P:problem=kreska pseudotaktowa	!	!	!	!
2B-X\	-bis	2d\	-bis	.	.	.
=62-	=62-	=62-	=62-	=62-	=62-	=62-
(2G\	De-	2d\	De-	0ryy	.	.
*custos:D	*	*	*	*	*	*
!LO:TX:t=P:problem=kreska pseudotaktowa	!	!	!	!	!	!
!	!	!LO:TX:t=P:problem=kreska pseudotaktowa	!	!	!	!
2A\)	.	2c#X\	.	.	.	.
!LO:LB:g=original	!	!	!	!	!LO:LB:g=original	!
2D/	-um	2d,<\	-um	.	2a\	O-
!LO:TX:t=P:problem=kreska pseudotaktowa	!	!	!	!	!LO:TX:t=P:problem=kreska pseudotaktowa	!
2r	.	(4cny\	O-	.	2ee\	-ra
.	.	4d\)	.	.	.	.
=63-	=63-	=63-	=63-	=63-	=63-	=63-
0r	.	2e\	-ra	0ryy	2b\	pro
!	!	!LO:TX:t=P:problem=kreska pseudotaktowa	!	!	!	!
.	.	2d\	pro	.	1dd\	no-
.	.	2e\	no-	.	.	.
*	*	*custos:d	*	*	*	*
!	!	!LO:TX:t=P:problem=kreska pseudotaktowa	!	!	!	!
!	!	!	!	!	!LO:TX:t=P:problem=kreska pseudotaktowa	!
.	.	2f\	-bis	.	2ccny\	-bis
=64-	=64-	=64-	=64-	=64-	=64-	=64-
!LO:TX:t=P:problem=kreska pseudotaktowa	!	!LO:LB:g=original	!	!	!	!
1r	.	(2d\	De-	0ryy	1b\	De-
!	!	!LO:TX:t=P:problem=kreska pseudotaktowa	!	!	!	!
.	.	2e\)	.	.	.	.
!	!	!	!	!	!LO:TX:t=P:problem=kreska pseudotaktowa	!
2r	.	2A,<\	-um	.	1a\	-um
4F\	O-	2c\	pro	.	.	.
!LO:TX:t=P:problem=kreska pseudotaktowa	!	!	!	!	!	!
4E\	.	.	.	.	.	.
=65-	=65-	=65-	=65-	=65-	=65-	=65-
4D\	.	1d\	no-	0ryy	2r	.
4E\	.	.	.	.	.	.
4F\	.	.	.	.	(1a\	pro
!LO:TX:t=P:problem=kreska pseudotaktowa	!	!	!	!	!	!
4G\	.	.	.	.	.	.
2A\	-ra	2c,<\	-bis	.	.	.
!	!	!LO:TX:t=P:problem=kreska pseudotaktowa	!	!	!	!
*	*	*	*ij	*	*	*
2G\	pro	2B\	pro	.	2b\)	.
=66-	=66-	=66-	=66-	=66-	=66-	=66-
2A\	no-	2A\	no-	0ryy	2cc#X\	no-
!	!	!LO:TX:t=P:problem=kreska pseudotaktowa	!	!	!LO:TX:t=P:problem=kreska pseudotaktowa	!
2B-X\	-bis	2d\	-bis	.	2dd\	-bis
*	*	*	*Xij	*	*	*
(2G\	De-	(2B-X\	De-	.	2dd\	De-
!LO:TX:t=P:problem=kreska pseudotaktowa	!	!LO:TX:t=P:problem=kreska pseudotaktowa	!	!	!LO:TX:t=P:problem=kreska pseudotaktowa	!
2A\)	.	2A\)	.	.	2cc#X\	.
=67-	=67-	=67-	=67-	=67-	=67-	=67-
!	!	!LO:TX:t=P:problem=kreska pseudotaktowa	!	!	!	!
2D,</	-um	1A\	-um	0ryy	2dd\	-um
!	!	!	!	!	!LO:TX:t=P:problem=kreska pseudotaktowa	!
2.A\	al-	.	.	.	2r	.
!	!	!LO:TX:t=P:problem=kreska pseudotaktowa	!	!	!	!
.	.	1re	.	.	00r	.
4F\	.	.	.	.	.	.
4G\	.	.	.	.	.	.
!LO:TX:t=P:problem=kreska pseudotaktowa	!	!	!	!	!	!
4A\	.	.	.	.	.	.
=68-	=68-	=68-	=68-	=68-	=68-	=68-
4D\	.	2.d\	al-	0ryy	.	.
4E\	.	.	.	.	.	.
4F\	.	.	.	.	.	.
!	!	!LO:TX:t=P:problem=kreska pseudotaktowa	!	!	!	!
4G\	.	4B-X\	.	.	.	.
4A\	.	4c\	.	.	.	.
4F\	.	4d\	.	.	.	.
!	!	!LO:TX:t=P:problem=kreska pseudotaktowa	!	!	!	!
4G\	.	2G/	.	.	.	.
!LO:TX:t=P:problem=kreska pseudotaktowa	!	!	!	!	!	!
4E\	.	.	.	.	.	.
=69-	=69-	=69-	=69-	=69-	=69-	=69-
2F\	-le-	4A\	.	0ryy	.	.
.	.	4Bny\	.	.	.	.
1C/	.	2.c\	.	.	.	.
.	.	.	.	.	0r	.
.	.	4A/	.	.	.	.
1D\	.	2.d\	.	.	.	.
=70-	=70-	=70-	=70-	=70-	=70-	=70-
.	.	.	.	0ryy	.	.
.	.	4c\	-le-	.	.	.
!LO:TX:t=P:problem=kreska pseudotaktowa	!	!LO:TX:t=P:problem=kreska pseudotaktowa	!	!	!	!
2E\	-lu-	2Bn\	-lu-	.	.	.
!	!	!	!	!	!LO:TX:t=P:problem=kreska pseudotaktowa	!
2AA/	-ia	2A/	-ia	.	1r	.
!LO:TX:t=P:problem=kreska pseudotaktowa	!	!LO:TX:t=P:problem=kreska pseudotaktowa	!	!	!	!
2r	.	2r	.	.	.	.
=71-	=71-	=71-	=71-	=71-	=71-	=71-
00r	.	00r	.	0ryy	2r	.
!	!	!	!	!	!LO:TX:t=P:problem=kreska pseudotaktowa	!
.	.	.	.	.	[<2dd\	.
!	!	!	!	!	!LO:N:xstem:cue	!
.	.	.	.	.	4dd\]	.
.	.	.	.	.	4b-X\	.
.	.	.	.	.	4ccny\	.
!	!	!	!	!	!LO:TX:t=P:problem=kreska pseudotaktowa	!
.	.	.	.	.	4dd\	.
=72-	=72-	=72-	=72-	=72-	=72-	=72-
.	.	.	.	0ryy	2g\	.
.	.	.	.	.	4a\	.
!	!	!	!	!	!LO:TX:t=P:problem=kreska pseudotaktowa	!
.	.	.	.	.	4bny\	.
.	.	.	.	.	4cc\	.
.	.	.	.	.	4a\	.
!	!	!	!	!	!LO:TX:t=P:problem=kreska pseudotaktowa	!
.	.	.	.	.	[<2dd\	-le-
=73-	=73-	=73-	=73-	=73-	=73-	=73-
!LO:TX:t=P:problem=kreska pseudotaktowa	!	!LO:TX:t=P:problem=kreska pseudotaktowa	!	!	!LO:N:xstem:cue	!
0r	.	1r	.	0ryy	4dd\]	.
.	.	.	.	.	4cc\	.
!	!	!	!	!	!LO:TX:t=P:problem=kreska pseudotaktowa	!
.	.	.	.	.	2b\	-lu-
.	.	2.A/	al-	.	2.cc#X,<\	-ia
!	!	!LO:TX:t=P:problem=kreska pseudotaktowa	!	!	!LO:TX:t=P:problem=kreska pseudotaktowa	!
*	*	*	*	*	*	*ij
.	.	4F/	.	.	4a\	al-
=74-	=74-	=74-	=74-	=74-	=74-	=74-
2r	.	4G/	.	0ryy	4b\	-le-
.	.	4A/	.	.	4cc#X\	-lu-
!LO:TX:t=P:problem=kreska pseudotaktowa	!	!	!	!	!LO:TX:t=P:problem=kreska pseudotaktowa	!
[<2D/	al-	4D/	.	.	2dd\	-ia
*	*	*	*	*	*	*Xij
.	.	4E/	.	.	.	.
!LO:N:xstem:cue	!	!	!	!	!LO:TX:t=P:problem=kreska pseudotaktowa	!
4D\]	.	4F/	.	.	1rdd	.
4BB-X/	.	4D/	.	.	.	.
4C/	.	4E/	.	.	.	.
*	*	*custos:G	*	*	*	*
!	!	!LO:TX:t=P:problem=kreska pseudotaktowa	!	!	!	!
4D/	.	4F#X/	.	.	.	.
=75-	=75-	=75-	=75-	=75-	=75-	=75-
!	!	!LO:LB:g=original	!	!	!LO:LB:g=original	!
2GG/	.	2G/	.	0ryy	2b\	al-
4AA/	.	4c\	.	.	4ccny\	.
!LO:TX:t=P:problem=kreska pseudotaktowa	!	!LO:TX:t=P:problem=kreska pseudotaktowa	!	!	!LO:TX:t=P:problem=kreska pseudotaktowa	!
4BBny/	.	4B\	.	.	4dd\	.
4C/	-le-	2A\	le-	.	4ee\	.
4AA/	.	.	.	.	4cc\	.
!	!	!	!	!	!LO:TX:t=P:problem=kreska pseudotaktowa	!
1D\	-lu-	2A\	-lu-	.	2ff\	-le-
=76-	=76-	=76-	=76-	=76-	=76-	=76-
.	.	(<2G/	-ia	0ryy	1ee\	-lu-
*custos:D	*	*	*	*	*	*
!LO:TX:t=P:problem=kreska pseudotaktowa	!	!	!	!	!	!
!	!	!LO:TX:t=P:problem=kreska pseudotaktowa	!	!	!	!
2C#X/	.	2A\)	.	.	.	.
!LO:LB:g=original	!	!	!	!	!	!
2D\	-ia	2A\	al-	.	2dd\	-ia
!LO:TX:t=P:problem=kreska pseudotaktowa	!	!	!	!	!LO:TX:t=P:problem=kreska pseudotaktowa	!
[<2A\	al-	4A\	.	.	2r	.
!	!	!LO:TX:t=P:problem=kreska pseudotaktowa	!	!	!	!
.	.	4B\	.	.	.	.
=77-	=77-	=77-	=77-	=77-	=77-	=77-
!LO:N:xstem:cue	!	!	!	!	!LO:TX:t=P:problem=kreska pseudotaktowa	!
4A\]	.	4c#X\	.	0ryy	1rdd	.
4F\	.	4A\	.	.	.	.
4G\	.	4B\	.	.	.	.
4A\	.	4c#\	.	.	.	.
4D\	.	2d\	.	.	2.dd\	al-
4E\	.	.	.	.	.	.
4F\	.	1A\	.	.	.	.
!LO:TX:t=P:problem=kreska pseudotaktowa	!	!	!	!	!LO:TX:t=P:problem=kreska pseudotaktowa	!
4G\	.	.	.	.	4b-X\	.
=78-	=78-	=78-	=78-	=78-	=78-	=78-
4A\	.	.	.	0ryy	4cc\	.
4F\	.	.	.	.	4dd\	.
!	!	!	!	!	!LO:TX:t=P:problem=kreska pseudotaktowa	!
4G\	.	4B\	.	.	2g/	.
!LO:TX:t=P:problem=kreska pseudotaktowa	!	!LO:TX:t=P:problem=kreska pseudotaktowa	!	!	!	!
4E\	.	4G/	-le-	.	.	.
2F\	.	2cny\	-lu-	.	4a\	.
.	.	.	.	.	4bny\	.
!	!	!LO:TX:t=P:problem=kreska pseudotaktowa	!	!	!	!
4Cny/	.	2c\	-ia	.	2.cc\	.
!LO:TX:t=P:problem=kreska pseudotaktowa	!	!	!	!	!	!
4D/	.	.	.	.	.	.
=79-	=79-	=79-	=79-	=79-	=79-	=79-
4E\	.	2r	.	0ryy	.	.
4F\	.	.	.	.	4cc\	-le-
!	!	!	!	!	!LO:TX:t=P:problem=kreska pseudotaktowa	!
1G\	-le-	2G/	al-	.	2b\	-lu-
.	.	2c\	.	.	2a,<\	-ia
!LO:TX:t=P:problem=kreska pseudotaktowa	!	!	!	!	!LO:TX:t=P:problem=kreska pseudotaktowa	!
2F\	.	2A\	.	.	2dd\	al-
=80-	=80-	=80-	=80-	=80-	=80-	=80-
!	!	!LO:TX:t=P:problem=kreska pseudotaktowa	!	!	!	!
1G\	.	1d\	.	0ryy	1b\	.
1.A\	.	2c\	-le-	.	2a\	.
!	!	!	!	!	!LO:TX:t=P:problem=kreska pseudotaktowa	!
.	.	1d\	-lu-	.	2f/	-le-
=81-	=81-	=81-	=81-	=81-	=81-	=81-
.	.	.	.	0ryy	1a\	-lu-
2AA/	-lu-	2c\	.	.	.	.
!LO:N:vis=0	!	!LO:N:vis=0	!	!	!LO:TX:t=P:problem=kreska pseudotaktowa	!
1D\	-ia.	1d\;	-ia	.	1a\	-ia
=82||	=82||	=82||	=82||	=82||	=82-	=82||
2r	.	2r	.	0ryy	2r	.
1BB-X/	al-	1Fny/	al-	.	1b-X\	al-
!	!	!	!	!	!LO:TX:t=P:problem=kreska pseudotaktowa	!
2GG/	-le-	2G/	.	.	2b-\	-le-
=83-	=83-	=83-	=83-	=83-	=83-	=83-
0AA/	-lu-	2E/	-le-	0ryy	1a\	-lu-
.	.	1F/	.	.	.	.
!	!	!	!	!	!LO:TX:t=P:problem=kreska pseudotaktowa	!
.	.	.	.	.	1a\	.
.	.	2E/	-lu-	.	.	.
=84-	=84-	=84-	=84-	=84-	=84-	=84-
0D\;	-ia.	0F/;	-ia.	0ryy	0f/;	-ia.
==	==	==	==	==	==	==
*-	*-	*-	*-	*-	*-	*-
!!!RDF**kern: > = above
!!!RDF**kern: < = below
!!!system-decoration: [(s1,s2,s3,s4)]
!!!EED: Andrzej Borzym
!!!EEV: 2021-03-20
!!!ENC: Berenika Jozajtis
!!!END: 2021-03-03
